X:1
T:Bruce's Address
T:Scottish traditional A Major            Arranged by William Hauser, 1848
T:Transcribed from The Hesperian Harp, 1848.
T:Jared Waterbury, 1828          77. 76. 77. 76.
%%score [ 1 2 3 4 ]
L:1/8
Q:1/4=80
M:6/8
K:A
V:1 treble nm="Tr." snm="Tr."
V:2 treble nm="C." snm="C."
V:3 treble-8 nm="T." snm="T."
V:4 bass nm="B." snm="B."
V:1
"_1. Soldiers  of  the  cross,  arise!   Lo!  your  leader from the  skies  Waves before you glory's prize,   The prize of vic – to – ry.     Seize your armor,  gird  it  on;  The" A2 A A2 E | %1
 A2 c A3 | c2 c c2 A | A2 B (c2 d) | e2 f e2 A | c2 d e2 B | A2 c d2 B | A6 |: e2 e e2 B | %9
 A2 A c2 A | %10
"_1. battle's yours, it will be won; Though fierce the strife 'twill soon be done;  Then struggle man–ful–ly." G2 G G2 A | %11
 (B2 A) B2 B | c2 A G2 A | (c2 e) e2 B | A2 c d2 B | A6 :| %16
V:2
"_2. Jesus conquered when he fell, Met and vanquished earth and hell; Now he leads you on, to swell The triumphs of his cross. Though all earth and hell appear, Who" C2 C C2 E | %1
 E2 F E3 | F2 F F2 C | D2 E (F2 E) | E2 F G2 F | F2 E E2 E | E2 C D2 C | C6 |: A2 A A2 G | %9
 F2 F E2 E | %10
"_2. will  doubt  or  who  can    fear?   God our strength and shield\" is near;   We   cannot  lose  our  cause." E2 E C2 C | %11
 (E2 E) E2 D | C2 E E2 C | (F2 E) E2 G | E2 D D2 C | C6 :| %16
V:3
"_3. Onward, then, ye hosts of God!  Jesus  points the victor's  rod;  Follow where your Leader trod;  You soon shall see his face.    Soon, your enemies all slain,  The" E2 E E2 C | %1
 E2 F A3 | F2 F F2 E | F2 G (A2 B) | c2 d B2 c | A2 B c2 B | A2 F F2 E | E6 |: c2 c c2 B | %9
 c2 d e2 c | %10
"_3. crown of glory you shall gain:  And walk among  that  glorious train, Who shout their Savior's praise." B2 B B2 A | %11
 (B2 c) d2 f | e2 c B2 c | (A2 B) c2 B | A2 F F2 E | E6 :| %16
V:4
 A,,2 A,, A,,2 A,, | A,,2 A,, A,,3 | A,2 A, A,2 E, | A,2 G, (F,2 G,) | A,2 B, E,2 F, | %5
 F,2 G, A,2 E, | A,,2 A,, D,2 E, | A,,6 |: A,2 A, A,2 E, | A,2 A,, A,,2 C, | %10
"_____________________________________________________________________________________________________________________________________\nWilliam Walker also arranged this Scottish traditional tune for three parts in 1835, which was included in \nThe Sacred Harp\n, p. 152, from 1844 through 1911.  \n   Hauser's arrangement (above) differs from Walker's in mnay ways: key, time, rhythm, lyrics, and all four music parts." E,2 E, E,2 E, | %11
 (E,2 E,) G,2 B, | A,2 A, E,2 E, | (F,2 G,) A,2 E, | A,,2 A,, D,2 E, | A,,6 :| %16

